src/assets/selectIconsSpells/fuoco_1.svg

<svg xmlns="http://www.w3.org/2000/svg" viewBox="0 0 512 512"><path d="M0 0h512v512H0z"/><path fill="#fff" d="M245.05 15.514c34.29 48.815-23.535 320.54-90.302 136.72C106.796 325.11 38.956 332.518 38.876 252.55c-71.6 79.31 43.824 220.767 87.376 243.935h52.127c-45.92-40.016-76.784-78-82.176-135.968 47.312 9.423 71.855 20.96 81.263-62.048 60.736 86.59 100.944-49.376 137.184-107.12-1.647 40.32-3.343 93.456 22.848 129.888 8.736 12.143 33.232 16.11 54.736 15.807-9.92 16.08-44.848 69.376-17.008 89.2 27.84 19.824 33.072-.384 25.856 16.176-13.264 20.88-22.992 39.375-59.072 54.063h56.064c59.44-18.72 111.807-91.663 94.607-135.535-22.015 18.657-43.774 30.897-61.294 29.537 49.12-72.08 37.84-145.903 14.752-221.342-20.224 72.383-33.488 82.495-54.576 99.52 29.104-68.657-85.44-214.448-146.51-253.15z"/></svg>

<?xml version="1.0" encoding="UTF-8" standalone="no"?>
<!DOCTYPE svg PUBLIC "-//W3C//DTD SVG 1.1//EN" "http://www.w3.org/Graphics/SVG/1.1/DTD/svg11.dtd">
<svg width="100%" height="100%" viewBox="0 0 512 512" version="1.1" xmlns="http://www.w3.org/2000/svg" xmlns:xlink="http://www.w3.org/1999/xlink" xml:space="preserve" xmlns:serif="http://www.serif.com/" style="fill-rule:evenodd;clip-rule:evenodd;stroke-linejoin:round;stroke-miterlimit:2;">
    <rect x="0" y="0" width="512" height="512" style="fill-rule:nonzero;"/>
    <path d="M245.05,15.514C279.34,64.329 221.515,336.054 154.748,152.234C106.796,325.11 38.956,332.518 38.876,252.55C-32.724,331.86 82.7,473.317 126.252,496.485L178.379,496.485C132.459,456.469 101.595,418.485 96.203,360.517C143.515,369.94 168.058,381.477 177.466,298.469C238.202,385.059 278.41,249.093 314.65,191.349C313.003,231.669 311.307,284.805 337.498,321.237C346.234,333.38 370.73,337.347 392.234,337.044C382.314,353.124 347.386,406.42 375.226,426.244C403.066,446.068 408.298,425.86 401.082,442.42C387.818,463.3 378.09,481.795 342.01,496.483L398.074,496.483C457.514,477.763 509.881,404.82 492.681,360.948C470.666,379.605 448.907,391.845 431.387,390.485C480.507,318.405 469.227,244.582 446.139,169.143C425.915,241.526 412.651,251.638 391.563,268.663C420.667,200.006 306.123,54.215 245.053,15.513L245.05,15.514Z" style="fill:url(#_Linear1);fill-rule:nonzero;"/>
    <defs>
        <linearGradient id="_Linear1" x1="0" y1="0" x2="1" y2="0" gradientUnits="userSpaceOnUse" gradientTransform="matrix(480,0,0,480.972,15.9995,255.999)"><stop offset="0" style="stop-color:rgb(228,22,22);stop-opacity:1"/><stop offset="1" style="stop-color:rgb(255,145,0);stop-opacity:1"/></linearGradient>
    </defs>
</svg>
